X:0089
T:Quick Step 4th. Regt.
M:6/8
L:1/8
Q:3/8=84
I: :: :: DC
P:ABA % Aird prints a da capo
Z:Jack Campin * www.campin.me.uk * 2009
K:G
P:A
g2d B2G|ecA F2D|G2A Bcd|dcB A3 |
g2d B2G|ecA F2D|EFG edc|BcA G3:|
P:B
e2d efg|dcB A2G|c2B cde|dcB A2c|
B2d G2g|f2a d2g|fed bag|fge d3:|
<end>
<start>
